images/mute.svg

<?xml version="1.0" encoding="UTF-8" standalone="no"?>
<!-- Created with Inkscape (http://www.inkscape.org/) -->

<svg
   xmlns:dc="http://purl.org/dc/elements/1.1/"
   xmlns:cc="http://creativecommons.org/ns#"
   xmlns:rdf="http://www.w3.org/1999/02/22-rdf-syntax-ns#"
   xmlns:svg="http://www.w3.org/2000/svg"
   xmlns="http://www.w3.org/2000/svg"
   xmlns:inkscape="http://www.inkscape.org/namespaces/inkscape"
   version="1.1"
   width="30"
   height="30"
   viewBox="0 0 30 30"
   id="svg2">
  <metadata
     id="metadata10">
    <rdf:RDF>
      <cc:Work
         rdf:about="">
        <dc:format>image/svg+xml</dc:format>
        <dc:type
           rdf:resource="http://purl.org/dc/dcmitype/StillImage" />
      </cc:Work>
    </rdf:RDF>
  </metadata>
  <defs
     id="defs8" />
  <path
     d="m 26,16.5 c -0.2,-0.2 -0.2,-0.6 0,-0.9 l 2.9,-2.9 C 28.7,11.9 28.4,11.1 28,10.4 l -4,4.1 -4.1,-4.1 c -0.4,0.7 -0.7,1.4 -0.9,2.3 l 2.9,2.9 c 0.2,0.2 0.2,0.6 0,0.9 l -3,3 c 0.2,0.8 0.5,1.6 0.9,2.3 l 4.1,-4.1 4.1,4.1 c 0.4,-0.7 0.7,-1.4 0.9,-2.3 l -2.9,-3 z m -11.4,11 h -0.2 0.2 z m 0,-25.1 c -1.1,0 -2.1,1 -2.8,1.6 L 7,8.9 H 3.9 C 2.6,8.9 1.5,10 1.5,11.3 v 7.2 c 0,1.3 1.1,2.6 2.4,2.6 H 7 l 4.9,4.6 c 0.6,0.6 1.6,1.8 2.6,1.9 0.4,-0.1 1.6,-0.3 1.6,-1.1 V 3.6 C 16,3.1 15.6,2.4 14.6,2.4 z m -1.1,21.3 c -0.1,0.4 -0.5,0.2 -0.7,0 L 8,18.8 C 7.8,18.6 7.6,18.4 7.4,18.4 H 4.5 c -0.3,0 -0.6,-0.3 -0.6,-0.6 v -5.6 c 0,-0.3 0.3,-0.6 0.6,-0.6 h 2.9 c 0.2,0 0.5,-0.1 0.6,-0.3 L 12.9,6.4 C 13.1,6.2 13.4,6 13.6,6.5 v 17.2 z"
     inkscape:connector-curvature="0"
     id="path4" />
</svg>

<?xml version="1.0" encoding="utf-8"?>
<!-- Generator: Adobe Illustrator 17.1.0, SVG Export Plug-In . SVG Version: 6.00 Build 0)  -->
<!DOCTYPE svg PUBLIC "-//W3C//DTD SVG 1.1//EN" "http://www.w3.org/Graphics/SVG/1.1/DTD/svg11.dtd">
<svg version="1.1" id="Layer_1" xmlns="http://www.w3.org/2000/svg" xmlns:xlink="http://www.w3.org/1999/xlink" x="0px" y="0px"
	 viewBox="0 0 30 30" enable-background="new 0 0 30 30" xml:space="preserve">
<g>
	<g>
		<path fill-rule="evenodd" clip-rule="evenodd" d="M26,16.5c-0.2-0.2-0.2-0.6,0-0.9c0,0,0,0,0,0l2.9-2.9c-0.2-0.8-0.5-1.6-0.9-2.3
			L24,14.5l-4.1-4.1c-0.4,0.7-0.7,1.4-0.9,2.3l2.9,2.9c0,0,0,0,0,0c0.2,0.2,0.2,0.6,0,0.9l0,0l-3,3c0.2,0.8,0.5,1.6,0.9,2.3l4.1-4.1
			l4.1,4.1c0.4-0.7,0.7-1.4,0.9-2.3L26,16.5L26,16.5z M14.6,27.5c-0.1,0-0.1,0-0.2,0C14.3,27.5,14.3,27.5,14.6,27.5z M14.6,2.4
			c-1.1,0-2.1,1-2.8,1.6L7,8.9H3.9c-1.3,0-2.4,1.1-2.4,2.4v7.2c0,1.3,1.1,2.6,2.4,2.6H7l4.9,4.6c0.6,0.6,1.6,1.8,2.6,1.9
			c0.4-0.1,1.6-0.3,1.6-1.1V3.6C16,3.1,15.6,2.4,14.6,2.4z M13.5,23.7c-0.1,0.4-0.5,0.2-0.7,0L8,18.8c-0.2-0.2-0.4-0.4-0.6-0.4H4.5
			c-0.3,0-0.6-0.3-0.6-0.6v-5.6c0-0.3,0.3-0.6,0.6-0.6h2.9c0.2,0,0.5-0.1,0.6-0.3l4.9-4.9c0.2-0.2,0.5-0.4,0.7,0.1V23.7z"/>
	</g>
</g>
</svg>
